icons/facebook-box-line.svg

<svg xmlns="http://www.w3.org/2000/svg" width="24" height="24" fill="none"><g clip-path="url(#a)"><g><path fill="#121212" d="M14 19H19V5H5V19H12V14H10V12H12V10.346C12 9.009 12.14 8.524 12.4 8.035C12.6561 7.55119 13.052 7.15569 13.536 6.9C13.918 6.695 14.393 6.572 15.223 6.519C15.552 6.498 15.978 6.524 16.501 6.599V8.499H16C15.083 8.499 14.704 8.542 14.478 8.663C14.3431 8.73236 14.2334 8.84215 14.164 8.977C14.044 9.203 14 9.427 14 10.345V12H16.5L16 14H14V19ZM4 3H20C20.2652 3 20.5196 3.10536 20.7071 3.29289C20.8946 3.48043 21 3.73478 21 4V20C21 20.2652 20.8946 20.5196 20.7071 20.7071C20.5196 20.8946 20.2652 21 20 21H4C3.73478 21 3.48043 20.8946 3.29289 20.7071C3.10536 20.5196 3 20.2652 3 20V4C3 3.73478 3.10536 3.48043 3.29289 3.29289C3.48043 3.10536 3.73478 3 4 3Z"/></g></g><defs><clipPath id="a"><rect width="24" height="24" fill="white"/></clipPath></defs></svg>

<svg width="24" height="24" fill="none" xmlns="http://www.w3.org/2000/svg"><g clip-path="url(#a)"><path d="M14 19h5V5H5v14h7v-5h-2v-2h2v-1.654c0-1.337.14-1.822.4-2.311A2.72 2.72 0 0 1 13.536 6.9c.382-.205.857-.328 1.687-.381.329-.021.755.005 1.278.08v1.9H16c-.917 0-1.296.043-1.522.164a.727.727 0 0 0-.314.314c-.12.226-.164.45-.164 1.368V12h2.5l-.5 2h-2v5ZM4 3h16a1 1 0 0 1 1 1v16a1 1 0 0 1-1 1H4a1 1 0 0 1-1-1V4a1 1 0 0 1 1-1Z" /></g><defs><clipPath id="a"><path fill="#fff" d="M0 0h24v24H0z"/></clipPath></defs></svg>
